X:18782
T:Willa Fjord (Harmony line)
M:2/4
K:D
|:A2 | F2D2 A,2D2 | G2D2 B,2D2 | F2D2 A,2D2 | CDE2 A,4 | 
F2D2 A,2D2 | G2D2 B,2D2 | CDEF GABc | dAGA F2:|
|:FG | A2FA F3A | B4 edcB | A2FA F3A | c2A2 E2A2 |
A2FA F3A | B2B2 edcA | G2EF GABc | dAGE F2:|


